build/img/sprite-icon-inst.svg

<svg viewBox="0 0 121.7 121.7" xmlns="http://www.w3.org/2000/svg"><path d="M79.9 31.5H41.8c-5.6 0-10.2 4.6-10.2 10.2V80c0 5.6 4.6 10.2 10.2 10.2h38.1c5.6 0 10.2-4.6 10.2-10.2V41.7c0-5.6-4.6-10.2-10.2-10.2zM69.6 60.7c0 4.9-3.9 8.8-8.8 8.8S52 65.6 52 60.7c0-2.4 1-4.6 2.5-6.2H67c1.7 1.6 2.6 3.8 2.6 6.2zm2.6-21h8.9v9.2h-8.9v-9.2zm7.7 44.4H41.8c-2.3 0-4.2-1.9-4.2-4.2V54.5h9.8c-.9 1.9-1.4 4-1.4 6.2 0 8.2 6.6 14.8 14.8 14.8s14.8-6.6 14.8-14.8c0-2.2-.5-4.3-1.4-6.2H84V80c.1 2.3-1.8 4.1-4.1 4.1z"/></svg>

<svg viewBox="0 0 121.7 121.7" id="inst" xmlns="http://www.w3.org/2000/svg">
	<path d="M79.9,31.5H41.8c-5.6,0-10.2,4.6-10.2,10.2V80c0,5.6,4.6,10.2,10.2,10.2h38.1c5.6,0,10.2-4.6,10.2-10.2V41.7
      C90.1,36.1,85.5,31.5,79.9,31.5z M69.6,60.7c0,4.9-3.9,8.8-8.8,8.8S52,65.6,52,60.7c0-2.4,1-4.6,2.5-6.2h12.5
      C68.7,56.1,69.6,58.3,69.6,60.7z M72.2,39.7h8.9v9.2h-8.9V39.7z M79.9,84.1H41.8c-2.3,0-4.2-1.9-4.2-4.2V54.5h9.8
      c-0.9,1.9-1.4,4-1.4,6.2c0,8.2,6.6,14.8,14.8,14.8s14.8-6.6,14.8-14.8c0-2.2-0.5-4.3-1.4-6.2h9.8V80C84.1,82.3,82.2,84.1,79.9,84.1z
      "/>
</svg>
